logo_mastercard_card.svg

<?xml version="1.0" encoding="UTF-8"?>
<svg width="49px" height="37px" viewBox="0 0 49 37" version="1.1" xmlns="http://www.w3.org/2000/svg" xmlns:xlink="http://www.w3.org/1999/xlink">
    <!-- Generator: Sketch 49.3 (51167) - http://www.bohemiancoding.com/sketch -->
    <title>logo_mastercard_card</title>
    <desc>Created with Sketch.</desc>
    <defs></defs>
    <g id="Page-1" stroke="none" stroke-width="1" fill="none" fill-rule="evenodd">
        <g id="5_оплата_карта" transform="translate(-820.000000, -355.000000)" fill-rule="nonzero">
            <g id="Group-13" transform="translate(170.000000, 126.000000)">
                <g id="Group-6" transform="translate(157.000000, 209.000000)">
                    <g id="Group-9" transform="translate(39.000000, 20.000000)">
                        <g id="Group-14" transform="translate(315.000000, 0.000000)">
                            <g id="logo_mastercard_card" transform="translate(139.000000, 0.000000)">
                                <g id="MC">
                                    <path d="M8.54714137,36.6736411 L8.54714137,34.1690257 C8.57666672,33.7429051 8.42143209,33.324682 8.1210407,33.0210527 C7.8206493,32.7174236 7.40415029,32.5577505 6.97780031,32.5827692 C6.41594037,32.5459296 5.87856434,32.817854 5.57541043,33.2924103 C5.29902105,32.8320033 4.79294296,32.5597083 4.25649614,32.5827692 C3.78941573,32.5591536 3.34475971,32.784689 3.0878379,33.1755282 L3.0878379,32.6829538 L2.21969178,32.6829538 L2.21969178,36.6736411 L3.09618545,36.6736411 L3.09618545,34.4779282 C3.05843711,34.2016233 3.14596932,33.9228876 3.33489526,33.7177856 C3.52382122,33.5126837 3.79442086,33.4026241 4.07284983,33.4176411 C4.64883139,33.4176411 4.94099596,33.7933333 4.94099596,34.4695795 L4.94099596,36.6903384 L5.81748963,36.6903384 L5.81748963,34.4779282 C5.78129026,34.2019375 5.8693577,33.9241049 6.05793337,33.7193832 C6.24650904,33.5146616 6.5161649,33.4041423 6.79415401,33.4176411 C7.38683069,33.4176411 7.67064768,33.7933333 7.67064768,34.4695795 L7.67064768,36.6903384 L8.54714137,36.6736411 Z M21.515074,32.6829538 L20.0876415,32.6829538 L20.0876415,31.4723897 L19.2111478,31.4723897 L19.2111478,32.6829538 L18.4181297,32.6829538 L18.4181297,33.4760821 L19.2278428,33.4760821 L19.2278428,35.3128 C19.2278428,36.2395076 19.5867878,36.790523 20.6135376,36.790523 C20.9971323,36.7918118 21.3732939,36.6847356 21.6987202,36.4816205 L21.4482936,35.7385846 C21.2154815,35.8774696 20.951251,35.9550263 20.6803181,35.964 C20.2629401,35.964 20.1043365,35.6968411 20.1043365,35.2961025 L20.1043365,33.4760821 L21.5234216,33.4760821 L21.515074,32.6829538 Z M28.9193587,32.5827692 C28.4881727,32.5700865 28.0845958,32.7943271 27.8675663,33.1671795 L27.8675663,32.6829538 L27.0077676,32.6829538 L27.0077676,36.6736411 L27.8759138,36.6736411 L27.8759138,34.4361846 C27.8759138,33.7766359 28.1597308,33.4092924 28.7106697,33.4092924 C28.8963545,33.4067521 29.0807233,33.440794 29.253261,33.509477 L29.520383,32.6746051 C29.3221167,32.6036677 29.1132327,32.5669668 28.9026636,32.5660718 L28.9193587,32.5827692 Z M17.7252822,33.0002051 C17.2338719,32.7079904 16.6688778,32.5631 16.0975083,32.5827692 C15.0874537,32.5827692 14.4279966,33.0669949 14.4279966,33.860123 C14.4279966,34.511323 14.912155,34.9120616 15.8053437,35.0372924 L16.2227217,35.0957333 C16.6985326,35.162523 16.9239167,35.2877538 16.9239167,35.5131692 C16.9239167,35.8220718 16.6067094,35.9973949 16.0140328,35.9973949 C15.5373047,36.0111962 15.0698,35.8641617 14.6867709,35.5799589 L14.2693929,36.2562051 C14.7750938,36.6093519 15.380796,36.7907952 15.9973376,36.7738257 C17.1493008,36.7738257 17.8171054,36.2311589 17.8171054,35.4714257 C17.8171054,34.7116924 17.2912092,34.4027897 16.4230631,34.2775589 L16.0056851,34.2191179 C15.630045,34.1690257 15.329533,34.0938872 15.329533,33.8267282 C15.329533,33.5595692 15.6133498,33.3592 16.0891608,33.3592 C16.5289418,33.3643094 16.9600598,33.4821648 17.3412945,33.7014975 L17.7252822,33.0002051 Z M40.9774075,32.5827692 C40.5462215,32.5700865 40.1426444,32.7943271 39.9256149,33.1671795 L39.9256149,32.6829538 L39.0658164,32.6829538 L39.0658164,36.6736411 L39.9339625,36.6736411 L39.9339625,34.4361846 C39.9339625,33.7766359 40.2177795,33.4092924 40.7687184,33.4092924 C40.9544033,33.4067521 41.1387719,33.440794 41.3113098,33.509477 L41.5784316,32.6746051 C41.3801654,32.6036677 41.1712816,32.5669668 40.9607123,32.5660718 L40.9774075,32.5827692 Z M29.7916786,34.6699487 C29.7708005,35.2370082 29.9898099,35.7866159 30.3949498,36.183867 C30.8000899,36.5811183 31.3538499,36.7892331 31.920306,36.7571282 C32.4415604,36.783652 32.9538315,36.6138642 33.3560861,36.2812513 L32.9387083,35.5799589 C32.6386014,35.8088438 32.2726492,35.9347487 31.8952635,35.9389538 C31.229838,35.8851059 30.717251,35.3292927 30.717251,34.6616 C30.717251,33.9939073 31.229838,33.4380941 31.8952635,33.3842462 C32.2726492,33.3884513 32.6386014,33.5143562 32.9387083,33.7432411 L33.3560861,33.0419487 C32.9538315,32.7093358 32.4415604,32.539548 31.920306,32.5660718 C31.3538499,32.5339669 30.8000899,32.7420817 30.3949498,33.139333 C29.9898099,33.5365841 29.7708005,34.0861918 29.7916786,34.6532513 L29.7916786,34.6699487 Z M37.9222009,34.6699487 L37.9222009,32.6829538 L37.0540547,32.6829538 L37.0540547,33.1671795 C36.7549631,32.7822827 36.2889911,32.5647989 35.801921,32.5827692 C34.6493635,32.5827692 33.7150311,33.5172313 33.7150311,34.6699487 C33.7150311,35.8226661 34.6493635,36.7571282 35.801921,36.7571282 C36.2889911,36.7750985 36.7549631,36.5576147 37.0540547,36.1727179 L37.0540547,36.6569435 L37.9222009,36.6569435 L37.9222009,34.6699487 Z M34.6916955,34.6699487 C34.730301,34.0148535 35.2853915,33.5107745 35.9410708,33.5353882 C36.59675,33.560002 37.112497,34.1042794 37.1018929,34.7604258 C37.0912889,35.4165723 36.5582238,35.9438949 35.9020917,35.9473025 C35.5679968,35.9515304 35.2473193,35.8160098 35.017485,35.5734613 C34.7876509,35.330913 34.6695494,35.0033817 34.6916955,34.6699487 Z M24.2155093,32.5827692 C23.062952,32.5989073 22.1417003,33.5464518 22.157836,34.6991692 C22.1739718,35.8518866 23.1213848,36.7732662 24.2739421,36.7571282 C24.8744402,36.7879554 25.4649741,36.5945547 25.9309326,36.2144616 L25.5135547,35.5716103 C25.1839771,35.8359636 24.775673,35.9828559 24.353244,35.9890462 C23.7565465,36.0403699 23.2274005,35.6073722 23.1595431,35.0122462 L26.1229264,35.0122462 C26.1229264,34.9037128 26.1229264,34.7951795 26.1229264,34.6782975 C26.1229264,33.4259897 25.3466034,32.5911179 24.2280306,32.5911179 L24.2155093,32.5827692 Z M24.2155093,33.3592 C24.4778742,33.3536057 24.7317097,33.4525094 24.9211448,33.6341415 C25.1105796,33.8157738 25.2200871,34.0652473 25.2255639,34.3276513 L23.1386742,34.3276513 C23.1701146,33.7703006 23.6409794,33.3401597 24.1988141,33.3592 L24.2155093,33.3592 Z M45.9650738,34.6782975 L45.9650738,31.08 L45.1303179,31.08 L45.1303179,33.1671795 C44.8312263,32.7822827 44.3652542,32.5647989 43.8781841,32.5827692 C42.7256268,32.5827692 41.7912944,33.5172313 41.7912944,34.6699487 C41.7912944,35.8226661 42.7256268,36.7571282 43.8781841,36.7571282 C44.3652542,36.7750985 44.8312263,36.5576147 45.1303179,36.1727179 L45.1303179,36.6569435 L45.9650738,36.6569435 L45.9650738,34.6782975 Z M47.4133752,36.0934051 C47.4676397,36.0927402 47.5215131,36.1026656 47.5719788,36.1226257 C47.6199118,36.1421884 47.6637872,36.1704991 47.701366,36.2061128 C47.7380406,36.2421047 47.7677552,36.28456 47.7890154,36.3313435 C47.8317387,36.4298782 47.8317387,36.5417115 47.7890154,36.6402462 C47.7677552,36.6870297 47.7380406,36.729485 47.701366,36.765477 C47.6637872,36.8010907 47.6199118,36.8294014 47.5719788,36.8489641 C47.5220114,36.8710152 47.4679909,36.8823896 47.4133752,36.8823589 C47.2518707,36.8811415 47.1055643,36.7868421 47.0377351,36.6402462 C46.9955065,36.5416095 46.9955065,36.4299802 47.0377351,36.3313435 C47.0589952,36.28456 47.0887098,36.2421047 47.1253844,36.2061128 C47.1629632,36.1704991 47.2068388,36.1421884 47.2547716,36.1226257 C47.3091351,36.1009975 47.3674377,36.0910422 47.4258966,36.0934051 L47.4133752,36.0934051 Z M47.4133752,36.7988718 C47.4550335,36.7991249 47.496277,36.7905905 47.5344149,36.7738257 C47.5703246,36.7577909 47.6028916,36.7351324 47.6304118,36.7070359 C47.7386366,36.5889404 47.7386366,36.4076956 47.6304118,36.2896 C47.6029573,36.261426 47.5703745,36.2387565 47.5344149,36.2228103 C47.4962394,36.2061635 47.4550212,36.1976344 47.4133752,36.1977641 C47.3717653,36.197984 47.3306168,36.2064987 47.2923356,36.2228103 C47.2548361,36.2381886 47.2207813,36.2608951 47.1921649,36.2896 C47.0839401,36.4076956 47.0839401,36.5889404 47.1921649,36.7070359 C47.2208516,36.7356551 47.2548883,36.7583494 47.2923356,36.7738257 C47.3344447,36.7919875 47.3800692,36.8005432 47.4258966,36.7988718 L47.4133752,36.7988718 Z M47.4384179,36.302123 C47.4773808,36.3002334 47.5157751,36.3120486 47.5469361,36.3355179 C47.5728564,36.3569724 47.5868423,36.3896109 47.5845001,36.4231795 C47.5857118,36.4512124 47.5751136,36.4784689 47.5552838,36.4983179 C47.5310917,36.5202943 47.5002301,36.5335225 47.4676344,36.5358872 L47.588674,36.6736411 L47.4926771,36.6736411 L47.379985,36.5358872 L47.342421,36.5358872 L47.342421,36.6736411 L47.2631192,36.6736411 L47.2631192,36.3062975 L47.4384179,36.302123 Z M47.3465947,36.3730872 L47.3465947,36.4732718 L47.4384179,36.4732718 C47.4547577,36.478144 47.4721636,36.478144 47.4885033,36.4732718 C47.4944563,36.4614564 47.4944563,36.4475179 47.4885033,36.4357025 C47.4944563,36.4238872 47.4944563,36.4099487 47.4885033,36.3981333 C47.4721636,36.3932611 47.4547577,36.3932611 47.4384179,36.3981333 L47.3465947,36.3730872 Z M42.7554374,34.6782975 C42.7940427,34.0232021 43.3491333,33.5191232 44.0048125,33.5437369 C44.6604919,33.5683506 45.1762387,34.1126282 45.1656347,34.7687745 C45.1550308,35.424921 44.6219656,35.9522438 43.9658334,35.9556513 C43.6317387,35.9598792 43.311061,35.8243584 43.0812269,35.5818101 C42.8513926,35.3392617 42.7332911,35.0117304 42.7554374,34.6782975 Z M13.4429846,34.6782975 L13.4429846,32.6829538 L12.5748385,32.6829538 L12.5748385,33.1671795 C12.2757469,32.7822827 11.8097748,32.5647989 11.3227047,32.5827692 C10.1701473,32.5827692 9.23581497,33.5172313 9.23581497,34.6699487 C9.23581497,35.8226661 10.1701473,36.7571282 11.3227047,36.7571282 C11.8097748,36.7750985 12.2757469,36.5576147 12.5748385,36.1727179 L12.5748385,36.6569435 L13.4429846,36.6569435 L13.4429846,34.6782975 Z M10.2124793,34.6782975 C10.2510847,34.0232021 10.8061752,33.5191232 11.4618545,33.5437369 C12.1175338,33.5683506 12.6332807,34.1126282 12.6226767,34.7687745 C12.6120726,35.424921 12.0790075,35.9522438 11.4228754,35.9556513 C11.0873409,35.9622394 10.7644307,35.8277518 10.5327454,35.5849246 C10.3010601,35.3420973 10.1818498,35.0132026 10.2041318,34.6782975 L10.2124793,34.6782975 Z" id="Shape" fill="#231F20"></path>
                                    <rect id="Rectangle-path" fill="#FF5F00" x="17.8004483" y="3.27672" width="13.1479743" height="23.63116"></rect>
                                    <path d="M18.635925,15.0944821 C18.6310094,10.4824383 20.7473748,6.12442925 24.3748718,3.27687179 C18.2142858,-1.565363 9.36743739,-0.860049629 4.05165374,4.89713663 C-1.2641299,10.6543229 -1.2641299,19.5304669 4.05165374,25.2876531 C9.36743739,31.0448393 18.2142858,31.7501527 24.3748718,26.9079179 C20.7485289,24.0612644 18.6322927,19.705061 18.635925,15.0944821 Z" id="Shape" fill="#EB001B"></path>
                                    <path d="M48.6871369,15.0944821 C48.6870027,20.8481599 45.4021307,26.0966941 40.2276187,28.6110121 C35.0531065,31.1253302 28.897408,30.4640104 24.3748718,26.9079179 C27.9996323,24.0588477 30.1160278,19.7032234 30.1160278,15.0923949 C30.1160278,10.4815664 27.9996323,6.125942 24.3748718,3.27687179 C28.897408,-0.279220712 35.0531065,-0.940540443 40.2276187,1.57377762 C45.4021307,4.08809571 48.6870027,9.33662994 48.6871369,15.0903076 L48.6871369,15.0944821 Z" id="Shape" fill="#F79E1B"></path>
                                </g>
                            </g>
                        </g>
                    </g>
                </g>
            </g>
        </g>
    </g>
</svg>

<svg width="49" height="37" xmlns="http://www.w3.org/2000/svg"><g fill-rule="nonzero" fill="none"><path d="M8.547 36.674v-2.505a1.486 1.486 0 0 0-1.57-1.586 1.544 1.544 0 0 0-1.402.71 1.465 1.465 0 0 0-1.319-.71 1.319 1.319 0 0 0-1.168.593v-.493H2.22v3.99h.876v-2.195a.935.935 0 0 1 .977-1.06c.576 0 .868.375.868 1.052v2.22h.876v-2.212a.94.94 0 0 1 .977-1.06c.593 0 .877.375.877 1.052v2.22l.876-.016zm12.968-3.991h-1.427v-1.21h-.877v1.21h-.793v.793h.81v1.837c0 .927.359 1.478 1.386 1.478.383 0 .76-.106 1.085-.31l-.25-.742a1.603 1.603 0 0 1-.769.225c-.417 0-.576-.267-.576-.668v-1.82h1.42l-.009-.793zm7.404-.1a1.177 1.177 0 0 0-1.051.584v-.484h-.86v3.99h.868v-2.237c0-.66.284-1.027.835-1.027.185-.002.37.032.542.1l.267-.834a1.857 1.857 0 0 0-.617-.109l.016.017zM17.725 33a2.984 2.984 0 0 0-1.627-.417c-1.01 0-1.67.484-1.67 1.277 0 .651.484 1.052 1.377 1.177l.418.059c.476.067.7.192.7.417 0 .31-.316.484-.909.484a2.124 2.124 0 0 1-1.327-.417l-.418.676a2.88 2.88 0 0 0 1.728.518c1.152 0 1.82-.543 1.82-1.303 0-.76-.526-1.068-1.394-1.193l-.417-.059c-.376-.05-.676-.125-.676-.392s.283-.468.76-.468c.439.005.87.123 1.251.342l.384-.7zm23.252-.417a1.177 1.177 0 0 0-1.051.584v-.484h-.86v3.99h.868v-2.237c0-.66.284-1.027.835-1.027.185-.002.37.032.542.1l.267-.834a1.857 1.857 0 0 0-.617-.109l.016.017zM29.792 34.67a2.016 2.016 0 0 0 2.128 2.087 2.087 2.087 0 0 0 1.436-.476l-.417-.701c-.3.229-.666.355-1.044.359a1.281 1.281 0 0 1 0-2.555c.378.004.744.13 1.044.36l.417-.702a2.087 2.087 0 0 0-1.436-.476 2.016 2.016 0 0 0-2.128 2.087v.017zm8.13 0v-1.987h-.868v.484a1.515 1.515 0 0 0-1.252-.584 2.087 2.087 0 0 0 0 4.174c.487.018.953-.2 1.252-.584v.484h.868V34.67zm-3.23 0a1.206 1.206 0 1 1 1.21 1.277 1.198 1.198 0 0 1-1.21-1.277zm-10.476-2.087a2.087 2.087 0 0 0 .058 4.174c.6.031 1.191-.162 1.657-.543l-.417-.642c-.33.264-.738.41-1.16.417a1.106 1.106 0 0 1-1.194-.977h2.963v-.334c0-1.252-.776-2.087-1.895-2.087l-.012-.008zm0 .776a.99.99 0 0 1 1.01.969h-2.087a1.027 1.027 0 0 1 1.06-.969h.017zm21.75 1.32V31.08h-.836v2.087a1.515 1.515 0 0 0-1.252-.584 2.087 2.087 0 0 0 0 4.174c.487.018.953-.2 1.252-.584v.484h.835v-1.979zm1.447 1.414a.417.417 0 0 1 .288.113.388.388 0 0 1-.13.643.392.392 0 0 1-.158.033.417.417 0 0 1-.375-.242.392.392 0 0 1 .087-.434.417.417 0 0 1 .3-.113h-.012zm0 .706a.296.296 0 0 0 .217-.092.309.309 0 0 0 0-.417.309.309 0 0 0-.217-.092.313.313 0 0 0-.22.092.309.309 0 0 0 0 .417.309.309 0 0 0 .1.067.309.309 0 0 0 .133.025h-.013zm.025-.497a.167.167 0 0 1 .109.034c.026.021.04.054.038.087a.1.1 0 0 1-.03.075.146.146 0 0 1-.087.038l.12.138h-.095l-.113-.138h-.038v.138h-.079v-.368l.175-.004zm-.091.071v.1h.091a.088.088 0 0 0 .05 0 .042.042 0 0 0 0-.037.042.042 0 0 0 0-.038.088.088 0 0 0-.05 0l-.091-.025zm-4.592-1.695a1.206 1.206 0 1 1 1.21 1.278 1.198 1.198 0 0 1-1.21-1.278zm-29.312 0v-1.995h-.868v.484a1.515 1.515 0 0 0-1.252-.584 2.087 2.087 0 0 0 0 4.174c.487.018.953-.2 1.252-.584v.484h.868v-1.979zm-3.23 0a1.206 1.206 0 1 1 1.21 1.278 1.198 1.198 0 0 1-1.219-1.278h.008z" fill="#231F20"/><path fill="#FF5F00" d="M17.8 3.277h13.148v23.631H17.8z"/><path d="M18.636 15.094a15.003 15.003 0 0 1 5.739-11.817C18.215-1.565 9.367-.86 4.052 4.897c-5.316 5.757-5.316 14.633 0 20.39 5.315 5.758 14.162 6.463 20.323 1.62a15.003 15.003 0 0 1-5.74-11.813z" fill="#EB001B"/><path d="M48.687 15.094a15.024 15.024 0 1 1-24.312 11.813 15.028 15.028 0 0 0 0-23.63A15.024 15.024 0 0 1 48.687 15.09v.004z" fill="#F79E1B"/></g></svg>
